;FLAVOR:Marlin
;TIME:520
;Filament used: 0.310391m
;Layer height: 0.2
;MINX:85.335
;MINY:86.064
;MINZ:0.2
;MAXX:134.665
;MAXY:133.938
;MAXZ:5
;Generated with Cura_SteamEngine 5.4.0
M82 ;absolute extrusion mode
; Ender 3 S1 Pro Start G-code
; M413 S0 ; Disable power loss recovery
G92 E0 ; Reset Extruder

; Prep surfaces before auto home for better accuracy
M140 S60
M104 S200

G28 O ; Home all untrusted axes
G1 Z10.0 F3000 ; Move Z Axis up little to prevent scratching of Heat Bed
G1 X0 Y0

M190 S60
M109 S200

G1 X0.1 Y20 Z0.3 F5000.0 ; Move to start position
G1 X0.1 Y200.0 Z0.3 F1500.0 E15 ; Draw the first line
G1 X0.4 Y200.0 Z0.3 F5000.0 ; Move to side a little
G1 X0.4 Y20 Z0.3 F1500.0 E30 ; Draw the second line
G92 E0 ; Reset Extruder
G1 Z2.0 F3000 ; Move Z Axis up little to prevent scratching of Heat Bed
G1 X5 Y20 Z0.3 F5000.0 ; Move over to prevent blob squish

G92 E0
G92 E0
G1 F2400 E-0.8
;LAYER_COUNT:25
;LAYER:0
M107
M204 S2000
G0 F7500 X94.673 Y90.996 Z0.2
M204 S500
;TYPE:SKIRT
G1 F2400 E0
G1 F1500 X95.261 Y90.385 E0.0282
G1 X95.693 Y89.972 E0.04808
G1 X96.049 Y89.651 E0.06403
G1 X96.583 Y89.199 E0.08729
G1 X97.091 Y88.798 E0.10882
G1 X97.858 Y88.246 E0.14025
G1 X98.957 Y87.614 E0.18242
G1 X99.706 Y87.251 E0.2101
G1 X100.29 Y86.992 E0.23135
G1 X101.131 Y86.663 E0.26138
G1 X102.134 Y86.371 E0.29613
G1 X103.09 Y86.183 E0.32853
G1 X104.057 Y86.082 E0.36087
G1 X104.988 Y86.064 E0.39184
G1 X105.561 Y86.093 E0.41093
G1 X108.124 Y86.289 E0.49642
G1 X110.688 Y86.415 E0.5818
G1 X113.184 Y86.468 E0.66484
G1 X116.077 Y86.443 E0.76106
G1 X117.049 Y86.482 E0.79342
G1 X118.016 Y86.605 E0.82584
G1 X118.967 Y86.814 E0.85823
G1 X119.896 Y87.106 E0.89061
G1 X120.763 Y87.465 E0.92183
G1 X121.659 Y87.931 E0.95542
G1 X122.484 Y88.461 E0.98803
G1 X123.384 Y89.169 E1.02612
G1 X123.93 Y89.655 E1.05043
G1 X124.317 Y90.019 E1.0681
G1 X124.938 Y90.64 E1.09731
G1 X125.682 Y91.443 E1.13372
G1 X125.996 Y91.803 E1.14961
G1 X126.58 Y92.503 E1.17993
G1 X127.111 Y93.196 E1.20897
G1 X127.429 Y93.647 E1.22732
G1 X127.733 Y94.104 E1.24557
G1 X128.126 Y94.743 E1.27053
G1 X128.603 Y95.597 E1.30306
G1 X128.811 Y96.005 E1.31829
G1 X129.075 Y96.561 E1.33876
G1 X129.292 Y97.056 E1.35674
G1 X129.56 Y97.726 E1.38074
G1 X129.777 Y98.325 E1.40193
G1 X129.99 Y98.986 E1.42503
G1 X130.176 Y99.631 E1.44736
G1 X130.336 Y100.26 E1.46894
G1 X130.504 Y101.065 E1.49629
G1 X130.702 Y102.227 E1.5355
G1 X131.072 Y104.75 E1.62031
G1 X131.508 Y107.229 E1.70403
G1 X132.018 Y109.715 E1.78844
G1 X132.584 Y112.125 E1.87077
G1 X133.245 Y114.62 E1.95662
G1 X134.175 Y117.757 E2.06545
G1 X134.455 Y118.965 E2.10669
G1 X134.517 Y119.332 E2.11907
G1 X134.634 Y120.296 E2.15137
G1 X134.665 Y121.164 E2.18026
G1 X134.664 Y121.47 E2.19043
G1 X134.615 Y122.437 E2.22264
G1 X134.514 Y123.208 E2.2485
G1 X134.466 Y123.489 E2.25798
G1 X134.258 Y124.456 E2.29088
G1 X134.01 Y125.269 E2.31915
G1 X133.894 Y125.596 E2.33069
G1 X133.544 Y126.463 E2.36179
G1 X133.193 Y127.171 E2.38807
G1 X133.054 Y127.427 E2.39776
G1 X132.543 Y128.271 E2.43058
G1 X132.004 Y129.019 E2.46124
G1 X131.303 Y129.843 E2.49722
G1 X130.715 Y130.431 E2.52488
G1 X130.474 Y130.653 E2.53578
G1 X129.714 Y131.291 E2.56878
G1 X128.914 Y131.852 E2.60128
G1 X128.662 Y132.011 E2.61119
G1 X127.85 Y132.476 E2.64231
G1 X127.046 Y132.852 E2.67183
G1 X126.742 Y132.979 E2.68279
G1 X125.863 Y133.301 E2.71393
G1 X124.92 Y133.563 E2.74648
G1 X123.924 Y133.755 E2.78022
G1 X123.115 Y133.848 E2.8073
G1 X122.803 Y133.871 E2.81771
G1 X121.9 Y133.899 E2.84776
G1 X120.882 Y133.843 E2.88167
G1 X119.56 Y133.707 E2.92587
G1 X117.011 Y133.475 E3.011
G1 X114.51 Y133.319 E3.09434
G1 X111.967 Y133.232 E3.17897
G1 X109.445 Y133.217 E3.26286
G1 X106.945 Y133.273 E3.34603
G1 X104.427 Y133.399 E3.42988
G1 X101.903 Y133.601 E3.5141
G1 X99.126 Y133.884 E3.60694
G1 X98.156 Y133.938 E3.63925
G1 X97.249 Y133.911 E3.66943
G1 X96.894 Y133.884 E3.68127
G1 X95.997 Y133.779 E3.71131
G1 X94.677 Y133.486 E3.75628
G1 X94.352 Y133.392 E3.76754
G1 X93.467 Y133.094 E3.7986
G1 X92.76 Y132.794 E3.82414
G1 X91.899 Y132.364 E3.85615
G1 X91.349 Y132.037 E3.87743
G1 X91.067 Y131.857 E3.88856
G1 X90.276 Y131.3 E3.92074
G1 X89.687 Y130.812 E3.94618
G1 X89.45 Y130.601 E3.95673
G1 X88.756 Y129.92 E3.98907
G1 X88.162 Y129.231 E4.01933
G1 X87.959 Y128.974 E4.03022
G1 X87.413 Y128.214 E4.06134
G1 X86.986 Y127.506 E4.08884
G1 X86.828 Y127.218 E4.09977
G1 X86.413 Y126.377 E4.13096
G1 X86.082 Y125.534 E4.16108
G1 X85.981 Y125.238 E4.17149
G1 X85.707 Y124.309 E4.2037
G1 X85.55 Y123.565 E4.22899
G1 X85.495 Y123.248 E4.23969
G1 X85.373 Y122.287 E4.27191
G1 X85.337 Y121.476 E4.29891
G1 X85.335 Y121.171 E4.30906
G1 X85.369 Y120.268 E4.33911
G1 X85.464 Y119.446 E4.36663
G1 X85.512 Y119.138 E4.377
G1 X85.702 Y118.199 E4.40887
G1 X85.85 Y117.66 E4.42746
G1 X86.566 Y115.3 E4.50948
G1 X87.235 Y112.855 E4.59379
G1 X87.826 Y110.423 E4.67704
G1 X88.351 Y107.973 E4.76037
G1 X88.812 Y105.472 E4.84496
G1 X89.206 Y102.936 E4.93032
G1 X89.339 Y102.001 E4.96173
G1 X89.441 Y101.409 E4.98171
G1 X89.559 Y100.823 E5.00159
G1 X89.685 Y100.281 E5.0201
G1 X89.906 Y99.453 E5.0486
G1 X90.213 Y98.499 E5.08194
G1 X90.39 Y98.007 E5.09933
G1 X90.577 Y97.529 E5.1164
G1 X90.91 Y96.754 E5.14445
G1 X91.145 Y96.263 E5.16256
G1 X91.489 Y95.587 E5.18779
G1 X91.715 Y95.168 E5.20362
G1 X92.195 Y94.322 E5.23597
G1 X92.621 Y93.636 E5.26283
G1 X92.917 Y93.196 E5.28047
G1 X93.227 Y92.76 E5.29826
G1 X93.578 Y92.293 E5.31769
G1 X94.108 Y91.635 E5.34579
G1 X94.673 Y90.996 E5.37416
M204 S2000
G0 F7500 X94.973 Y91.261
M204 S500
G1 F1500 X95.537 Y90.674 E5.40124
G1 X95.961 Y90.269 E5.42074
G1 X96.308 Y89.956 E5.43628
G1 X96.831 Y89.513 E5.45908
G1 X97.325 Y89.123 E5.48001
G1 X98.092 Y88.571 E5.51144
G1 X99.156 Y87.961 E5.55223
G1 X99.868 Y87.617 E5.57853
G1 X100.436 Y87.365 E5.5992
G1 X101.277 Y87.036 E5.62924
G1 X102.212 Y86.763 E5.66163
G1 X103.132 Y86.581 E5.69283
G1 X104.065 Y86.482 E5.72403
G1 X104.968 Y86.464 E5.75407
G1 X105.53 Y86.492 E5.77279
G1 X108.104 Y86.689 E5.85865
G1 X110.668 Y86.815 E5.94403
G1 X113.179 Y86.868 E6.02757
G1 X116.062 Y86.843 E6.12346
G1 X116.999 Y86.879 E6.15465
G1 X117.931 Y86.996 E6.18589
G1 X118.848 Y87.196 E6.21711
G1 X119.743 Y87.476 E6.2483
G1 X120.61 Y87.835 E6.27951
G1 X121.443 Y88.268 E6.31073
G1 X122.237 Y88.776 E6.34208
G1 X123.118 Y89.468 E6.37934
G1 X123.656 Y89.947 E6.4033
G1 X124.034 Y90.302 E6.42055
G1 X124.645 Y90.912 E6.44927
G1 X125.381 Y91.706 E6.48528
G1 X125.689 Y92.059 E6.50086
G1 X126.263 Y92.747 E6.53066
G1 X126.784 Y93.426 E6.55912
G1 X127.096 Y93.869 E6.57715
G1 X127.392 Y94.314 E6.59492
G1 X127.785 Y94.953 E6.61987
G1 X128.247 Y95.779 E6.65135
G1 X128.45 Y96.176 E6.66618
G1 X128.709 Y96.722 E6.68628
G1 X128.921 Y97.204 E6.70379
G1 X129.184 Y97.862 E6.72736
G1 X129.396 Y98.448 E6.74809
G1 X129.606 Y99.097 E6.77078
G1 X129.788 Y99.73 E6.79268
G1 X129.944 Y100.342 E6.81369
G1 X130.112 Y101.147 E6.84104
G1 X130.306 Y102.285 E6.87944
G1 X130.678 Y104.819 E6.96462
G1 X131.116 Y107.309 E7.04871
G1 X131.626 Y109.795 E7.13312
G1 X132.197 Y112.227 E7.21621
G1 X132.858 Y114.722 E7.30205
G1 X133.785 Y117.847 E7.41047
G1 X134.065 Y119.055 E7.45171
G1 X134.12 Y119.381 E7.46271
G1 X134.234 Y120.311 E7.49387
G1 X134.265 Y121.163 E7.52223
G1 X134.264 Y121.45 E7.53177
G1 X134.218 Y122.385 E7.56291
G1 X134.119 Y123.142 E7.5883
G1 X134.075 Y123.405 E7.59717
G1 X133.875 Y124.339 E7.62894
G1 X133.627 Y125.152 E7.65721
G1 X133.523 Y125.446 E7.66758
G1 X133.173 Y126.313 E7.69868
G1 X132.841 Y126.98 E7.72346
G1 X132.702 Y127.236 E7.73315
G1 X132.218 Y128.037 E7.76428
G1 X131.679 Y128.785 E7.79494
G1 X131.02 Y129.56 E7.82878
G1 X130.443 Y130.137 E7.85592
G1 X130.216 Y130.347 E7.8662
G1 X129.484 Y130.964 E7.89804
G1 X128.7 Y131.514 E7.9299
G1 X128.463 Y131.664 E7.93923
G1 X127.68 Y132.114 E7.96926
G1 X126.893 Y132.483 E7.99817
G1 X126.604 Y132.603 E8.00858
G1 X125.725 Y132.925 E8.03972
G1 X124.844 Y133.17 E8.07013
G1 X123.848 Y133.362 E8.10387
G1 X123.085 Y133.449 E8.12941
G1 X122.791 Y133.471 E8.13921
G1 X121.888 Y133.499 E8.16926
G1 X120.923 Y133.445 E8.20141
G1 X119.601 Y133.309 E8.24561
G1 X117.036 Y133.076 E8.33127
G1 X114.524 Y132.919 E8.41499
G1 X111.981 Y132.832 E8.49962
G1 X109.438 Y132.817 E8.5842
G1 X106.936 Y132.873 E8.66744
G1 X104.395 Y133.001 E8.75206
G1 X101.871 Y133.202 E8.83627
G1 X99.103 Y133.485 E8.92882
G1 X98.168 Y133.538 E8.95996
G1 X97.279 Y133.512 E8.98955
G1 X96.941 Y133.487 E9.00082
G1 X96.044 Y133.382 E9.03086
G1 X94.788 Y133.102 E9.07366
G1 X94.48 Y133.013 E9.08432
G1 X93.595 Y132.715 E9.11538
G1 X92.938 Y132.436 E9.13912
G1 X92.103 Y132.02 E9.17015
G1 X91.564 Y131.7 E9.191
G1 X91.297 Y131.53 E9.20152
G1 X90.531 Y130.992 E9.23266
G1 X89.953 Y130.514 E9.2576
G1 X89.73 Y130.315 E9.26754
G1 X89.059 Y129.659 E9.29876
G1 X88.476 Y128.983 E9.32845
G1 X88.284 Y128.74 E9.33875
G1 X87.756 Y128.007 E9.36879
G1 X87.329 Y127.299 E9.39629
G1 X87.187 Y127.041 E9.40609
G1 X86.772 Y126.2 E9.43728
G1 X86.46 Y125.404 E9.46572
G1 X86.364 Y125.124 E9.47556
G1 X86.098 Y124.227 E9.50668
G1 X85.944 Y123.496 E9.53153
G1 X85.892 Y123.197 E9.54162
G1 X85.773 Y122.269 E9.57274
G1 X85.737 Y121.473 E9.59924
G1 X85.735 Y121.186 E9.60879
G1 X85.769 Y120.283 E9.63884
G1 X85.859 Y119.507 E9.66482
G1 X85.904 Y119.217 E9.67458
G1 X86.088 Y118.305 E9.70553
G1 X86.233 Y117.776 E9.72377
G1 X86.949 Y115.416 E9.8058
G1 X87.621 Y112.961 E9.89046
G1 X88.215 Y110.517 E9.97411
G1 X88.742 Y108.057 E10.05779
G1 X89.205 Y105.544 E10.14278
G1 X89.601 Y102.997 E10.22851
G1 X89.733 Y102.069 E10.25968
G1 X89.833 Y101.488 E10.27929
G1 X89.949 Y100.913 E10.2988
G1 X90.071 Y100.384 E10.31686
G1 X90.287 Y99.575 E10.34471
G1 X90.589 Y98.635 E10.37755
G1 X90.763 Y98.153 E10.39459
G1 X90.945 Y97.687 E10.41123
G1 X91.271 Y96.927 E10.43874
G1 X91.502 Y96.444 E10.45654
G1 X91.841 Y95.777 E10.48143
G1 X92.063 Y95.365 E10.49699
G1 X92.535 Y94.533 E10.52881
G1 X92.953 Y93.859 E10.55519
G1 X93.243 Y93.428 E10.57247
G1 X93.553 Y92.992 E10.59026
G1 X93.889 Y92.544 E10.60889
G1 X94.408 Y91.9 E10.63639
G1 X94.973 Y91.261 E10.66476
M204 S2000
G0 F7500 X95.273 Y91.526
M204 S500
G1 F1500 X95.814 Y90.963 E10.69073
G1 X96.229 Y90.566 E10.70984
G1 X96.566 Y90.261 E10.72495
G1 X97.079 Y89.827 E10.7473
G1 X97.559 Y89.447 E10.76766
G1 X98.291 Y88.918 E10.7977
G1 X99.355 Y88.308 E10.8385
G1 X100.03 Y87.983 E10.86341
G1 X100.582 Y87.738 E10.8835
G1 X101.423 Y87.409 E10.91354
G1 X102.29 Y87.155 E10.94358
G1 X103.175 Y86.979 E10.9736
G1 X104.073 Y86.882 E11.00364
G1 X104.976 Y86.864 E11.03368
G1 X105.499 Y86.891 E11.0511
G1 X108.084 Y87.089 E11.13732
G1 X110.648 Y87.215 E11.22271
G1 X113.174 Y87.268 E11.30674
G1 X116.047 Y87.243 E11.4023
G1 X116.95 Y87.276 E11.43235
G1 X117.846 Y87.387 E11.46238
G1 X118.729 Y87.578 E11.49243
G1 X119.591 Y87.846 E11.52245
G1 X120.426 Y88.19 E11.55249
G1 X121.228 Y88.605 E11.58253
G1 X121.99 Y89.091 E11.61259
G1 X122.852 Y89.767 E11.64902
G1 X123.382 Y90.239 E11.67263
G1 X123.76 Y90.594 E11.68987
G1 X124.352 Y91.184 E11.71767
G1 X125.08 Y91.969 E11.75328
G1 X125.382 Y92.315 E11.76856
G1 X125.946 Y92.991 E11.79784
G1 X126.457 Y93.656 E11.82573
G1 X126.763 Y94.091 E11.84342
G1 X127.051 Y94.524 E11.86072
G1 X127.444 Y95.163 E11.88567
G1 X127.891 Y95.961 E11.91609
G1 X128.089 Y96.348 E11.93055
G1 X128.343 Y96.883 E11.95025
G1 X128.55 Y97.353 E11.96733
G1 X128.808 Y97.998 E11.99043
G1 X129.015 Y98.571 E12.0107
G1 X129.225 Y99.22 E12.03338
G1 X129.4 Y99.829 E12.05446
G1 X129.552 Y100.424 E12.07488
G1 X129.72 Y101.229 E12.10224
G1 X129.91 Y102.343 E12.13982
G1 X130.284 Y104.888 E12.22538
G1 X130.724 Y107.39 E12.30987
G1 X131.235 Y109.876 E12.39429
G1 X131.81 Y112.33 E12.47812
G1 X132.472 Y114.825 E12.56397
G1 X133.395 Y117.937 E12.67193
G1 X133.675 Y119.145 E12.71318
G1 X133.723 Y119.43 E12.72279
G1 X133.834 Y120.326 E12.75282
G1 X133.865 Y121.162 E12.78064
G1 X133.864 Y121.431 E12.78959
G1 X133.821 Y122.333 E12.81963
G1 X133.724 Y123.076 E12.84455
G1 X133.68 Y123.339 E12.85342
G1 X133.492 Y124.222 E12.88344
G1 X133.244 Y125.035 E12.91171
G1 X133.152 Y125.297 E12.92095
G1 X132.815 Y126.135 E12.95099
G1 X132.49 Y126.789 E12.97528
G1 X132.359 Y127.03 E12.98441
G1 X131.893 Y127.804 E13.01445
G1 X131.374 Y128.526 E13.04403
G1 X130.715 Y129.301 E13.07786
G1 X130.171 Y129.843 E13.10341
G1 X129.944 Y130.053 E13.11369
G1 X129.254 Y130.637 E13.14376
G1 X128.486 Y131.176 E13.17496
G1 X128.264 Y131.317 E13.18371
G1 X127.481 Y131.767 E13.21375
G1 X126.738 Y132.114 E13.24102
G1 X126.466 Y132.228 E13.25083
G1 X125.618 Y132.54 E13.28088
G1 X124.768 Y132.777 E13.31023
G1 X123.772 Y132.969 E13.34397
G1 X123.055 Y133.05 E13.36797
G1 X122.779 Y133.071 E13.37718
G1 X121.876 Y133.099 E13.40722
G1 X120.964 Y133.047 E13.43761
G1 X119.642 Y132.911 E13.48181
G1 X117.061 Y132.677 E13.56801
G1 X114.538 Y132.519 E13.65209
G1 X111.995 Y132.432 E13.73672
G1 X109.431 Y132.417 E13.822
G1 X106.927 Y132.473 E13.9053
G1 X104.363 Y132.603 E13.99069
G1 X101.839 Y132.803 E14.0749
G1 X99.08 Y133.086 E14.16715
G1 X98.179 Y133.138 E14.19716
G1 X97.308 Y133.113 E14.22615
G1 X96.988 Y133.09 E14.23682
G1 X96.091 Y132.985 E14.26685
G1 X94.899 Y132.718 E14.30748
G1 X94.607 Y132.634 E14.31759
G1 X93.751 Y132.347 E14.34762
G1 X93.116 Y132.078 E14.37055
G1 X92.307 Y131.676 E14.4006
G1 X91.768 Y131.356 E14.42145
G1 X91.526 Y131.202 E14.43099
G1 X90.786 Y130.684 E14.46103
G1 X90.219 Y130.215 E14.48551
G1 X90.009 Y130.028 E14.49486
G1 X89.362 Y129.398 E14.52489
G1 X88.79 Y128.735 E14.55402
G1 X88.609 Y128.506 E14.56373
G1 X88.081 Y127.773 E14.59377
G1 X87.679 Y127.106 E14.61968
G1 X87.545 Y126.863 E14.62891
G1 X87.144 Y126.054 E14.65894
G1 X86.838 Y125.273 E14.68684
G1 X86.747 Y125.01 E14.69609
G1 X86.489 Y124.145 E14.72611
G1 X86.338 Y123.427 E14.75052
G1 X86.289 Y123.146 E14.76
G1 X86.173 Y122.251 E14.79002
G1 X86.137 Y121.47 E14.81603
G1 X86.135 Y121.201 E14.82497
G1 X86.169 Y120.298 E14.85503
G1 X86.254 Y119.568 E14.87947
G1 X86.296 Y119.296 E14.88863
G1 X86.474 Y118.411 E14.91865
G1 X86.616 Y117.892 E14.93655
G1 X87.332 Y115.532 E15.01857
G1 X88.007 Y113.067 E15.10358
G1 X88.604 Y110.611 E15.18764
G1 X89.133 Y108.141 E15.27166
G1 X89.598 Y105.616 E15.35705
G1 X89.996 Y103.058 E15.44316
G1 X90.127 Y102.137 E15.4741
G1 X90.225 Y101.567 E15.49333
G1 X90.339 Y101.003 E15.51247
G1 X90.458 Y100.487 E15.53008
G1 X90.668 Y99.697 E15.55727
G1 X90.965 Y98.771 E15.58962
G1 X91.136 Y98.298 E15.60635
G1 X91.313 Y97.844 E15.62255
G1 X91.632 Y97.099 E15.64951
G1 X91.858 Y96.625 E15.66697
G1 X92.193 Y95.967 E15.69153
G1 X92.411 Y95.562 E15.70683
G1 X92.875 Y94.744 E15.73811
G1 X93.285 Y94.082 E15.76401
G1 X93.569 Y93.66 E15.78093
G1 X93.873 Y93.232 E15.79839
G1 X94.201 Y92.795 E15.81656
G1 X94.708 Y92.165 E15.84346
G1 X95.273 Y91.526 E15.87183
M204 S2000
G1 F2400 E15.07183
;MESH:kuomimi.stl
G0 F7500 X99.923 Y111.557
G0 X99.8 Y118.856
M204 S500
;TYPE:WALL-INNER
G1 F2400 E15.87183
G1 F1500 X100.563 Y118.246 E15.90432
G1 X100.254 Y118.271 E15.91463
G1 X100.061 Y118.163 E15.92198
G1 X99.915 Y117.926 E15.93124
G1 X99.8 Y118.856 E15.96241
M204 S2000
G1 F2400 E15.16241
G0 F7500 X99.549 Y119.305
G0 X98.882 Y120.29
G0 X98.043 Y122.346
M204 S500
G1 F2400 E15.96241
G1 F1500 X98.388 Y122.284 E15.97407
G1 X98.709 Y122.103 E15.98632
G1 X98.946 Y121.838 E15.99815
G1 X99.035 Y121.668 E16.00453
G1 X99.115 Y121.326 E16.01621
G1 X99.076 Y120.961 E16.02842
G1 X98.926 Y120.631 E16.04048
G1 X98.762 Y120.427 E16.04918
G1 X98.544 Y120.286 E16.05782
G1 X98.191 Y120.167 E16.07021
G1 X97.84 Y120.169 E16.08188
G1 X97.658 Y120.215 E16.08813
G1 X97.34 Y120.391 E16.10022
G1 X97.21 Y120.511 E16.1061
G1 X97.011 Y120.821 E16.11835
G1 X96.926 Y121.165 E16.13014
G1 X96.957 Y121.517 E16.14189
G1 X97.023 Y121.704 E16.14849
G1 X97.22 Y122 E16.16031
G1 X97.357 Y122.124 E16.16646
G1 X97.675 Y122.291 E16.17841
G1 X98.043 Y122.346 E16.19078
M204 S2000
G1 F2400 E15.39078
G0 F7500 X98.003 Y122.241
G0 X98.608 Y121.978
G0 X98.815 Y121.744
G0 X99.178 Y120.708
G0 X100.127 Y120.202
G0 X110.643 Y115.793
G0 X114.809 Y114.513
M204 S500
G1 F2400 E16.19078
G1 F1500 X114.746 Y113.914 E16.21081
G1 X117.759 Y111.905 E16.33126
